X: 1372
T: Daisy Sutton's Polka Mazurka
B: australian traditional tunes wiki
M:3/4
L:1/8
R: Polka Mazurka
Q: 1/4=100
K:D
V:1 
A2|"D"f2-f>e d>B|A2A2A>d|"A7"c2A2c>e|"D"d4A2|f2-f>e d>B|A2A2A>d|"A7"c2A2c>e|"D"d4a2|
"G"b2e>fg2|"D"a>f d>ef2|"A7"g>f e>d c>B|"D"A4a2|"G"b2e>fg2|"D"a>f d>ef2|"A7"g>f e>d c>e|"D"d4||
% abcbook-tune_id 6342d53a3caf10abf579b5e9


% abcbook-boost 0
% abcbook-tablature 
% abcbook-transpose 
% abcbook-lastupdated 1665324361622
% abcbook-soundfonts 
% abcbook-repeats 1
% NFF Book 2015

